!!!COM: Aaron Copland
!!!OTL: [T722_Cop-w41p3h4m1-h5m8]
**kern	**dynam	**kern	**dynam	**kern	**dynam	**kern	**dynam	**kern	**dynam	**kern	**dynam	**kern	**dynam	**kern	**dynam	**kern	**dynam	**kern	**dynam	**kern	**kern	**dynam	**kern	**dynam
*part13	*part13	*part12	*part12	*part11	*part11	*part10	*part10	*part9	*part9	*part8	*part8	*part7	*part7	*part6	*part6	*part5	*part5	*part4	*part4	*part3	*part2	*part2	*part1	*part1
*staff13	*	*staff12	*	*staff11	*	*staff10	*	*staff9	*	*staff8	*	*staff7	*	*staff6	*	*staff5	*	*staff4	*	*staff3	*staff2	*	*staff1	*
*I"Contrabass	*	*I"Violoncello	*	*I"Viola	*	*I"Violin II	*	*I"Violin I	*	*I"Trombone	*	*I"Trumpet in C	*	*I"Horn in F 1	*	*I"Bassoon	*	*I"Clarinet in Bb 1. 2.	*	*I"Oboe	*I"Piccolo	*	*I"Flute 1	*
*I'Cb.	*	*I'Vc.	*	*I'Vla.	*	*I'Vln. II	*	*I'Vln. I	*	*I'Tbn.	*	*I'C Tpt.	*	*I'Hn.	*	*I'Bsn.	*	*I'Cl.	*	*I'Ob.	*I'Picc.	*	*I'Fl.	*
!!pagebreak:original
*clefF4	*	*clefF4	*	*clefC3	*	*clefG2	*	*clefG2	*	*clefF4	*	*clefG2	*	*clefG2	*	*clefF4	*	*clefG2	*	*clefG2	*clefG2	*	*clefG2	*
*ITrd0c0	*	*	*	*	*	*	*	*	*	*	*	*	*	*ITrd4c7	*	*	*	*ITrd1c2	*	*	*ITrd0c0	*	*	*
*k[]	*	*k[]	*	*k[]	*	*k[]	*	*k[]	*	*k[]	*	*k[]	*	*k[b-]	*	*k[]	*	*k[b-e-]	*	*k[]	*k[]	*	*k[]	*
*	*	*	*	*	*	*	*	*	*	*	*	*	*	*	*	*	*	*	*	*	*	*	*	*
*M3/4	*	*M3/4	*	*M3/4	*	*M3/4	*	*M3/4	*	*M3/4	*	*M3/4	*	*M3/4	*	*M3/4	*	*M3/4	*	*M3/4	*M3/4	*	*M3/4	*
=1	=1	=1	=1	=1	=1	=1	=1	=1	=1	=1	=1	=1	=1	=1	=1	=1	=1	=1	=1	=1	=1	=1	=1	=1
!	!	!	!	!	!	!	!	!	!	!	!	!	!	!	!	!	!	!LO:TX:a:t=Solo	!	!	!	!	!LO:TX:t=[quarter]=92	!
!	!	!	!	!	!	!	!	!	!	!	!	!	!	!	!	!	!	!LO:TX:b:i:t=  (poco marc.)	!	!LO:TX:b:t=[mf]	!	!	!LO:TX:a:B:t=Tempo del principio	!
4%3r	.	4%3r	.	4%3r	.	4%3r	.	4%3r	.	4%3r	.	4%3r	.	4%3r	.	4%3r	.	(4.ee-~	mf	[2.ccc	4%3r	.	4%3r	.
.	.	.	.	.	.	.	.	.	.	.	.	.	.	.	.	.	.	8ee-')	.	.	.	.	.	.
.	.	.	.	.	.	.	.	.	.	.	.	.	.	.	.	.	.	[4ee-~	.	.	.	.	.	.
=2	=2	=2	=2	=2	=2	=2	=2	=2	=2	=2	=2	=2	=2	=2	=2	=2	=2	=2	=2	=2	=2	=2	=2	=2
4%3r	.	4%3r	.	4%3r	.	4%3r	.	4%3r	.	4%3r	.	4%3r	.	4%3r	.	4%3r	.	4ee-]	.	2.ccc_	4%3r	.	4%3r	.
.	.	.	.	.	.	.	.	.	.	.	.	.	.	.	.	.	.	(4.ee-~	.	.	.	.	.	.
.	.	.	.	.	.	.	.	.	.	.	.	.	.	.	.	.	.	8ee-')	.	.	.	.	.	.
=3	=3	=3	=3	=3	=3	=3	=3	=3	=3	=3	=3	=3	=3	=3	=3	=3	=3	=3	=3	=3	=3	=3	=3	=3
4%3r	.	4%3r	.	4%3r	.	4%3r	.	4%3r	.	4%3r	.	4%3r	.	4%3r	.	4%3r	.	2ee-~	.	4ccc]	4%3r	.	4%3r	.
.	.	.	.	.	.	.	.	.	.	.	.	.	.	.	.	.	.	.	.	[2ccc~	.	.	.	.
.	.	.	.	.	.	.	.	.	.	.	.	.	.	.	.	.	.	(4ee-	.	.	.	.	.	.
=4	=4	=4	=4	=4	=4	=4	=4	=4	=4	=4	=4	=4	=4	=4	=4	=4	=4	=4	=4	=4	=4	=4	=4	=4
4%3r	.	4%3r	.	4%3r	.	4%3r	.	4%3r	.	4%3r	.	4%3r	.	4%3r	.	4%3r	.	2dd-X)	.	4ccc]	4%3r	.	4%3r	.
.	.	.	.	.	.	.	.	.	.	.	.	.	.	.	.	.	.	.	.	[2ccc~	.	.	.	.
!	!	!	!	!	!	!	!	!	!	!	!	!	!	!	!	!	!	!LO:TX:b:t=Solo	!	!	!	!	!	!
.	.	.	.	.	.	.	.	.	.	.	.	.	.	.	.	.	.	[4ee-	.	.	.	.	.	.
=5	=5	=5	=5	=5	=5	=5	=5	=5	=5	=5	=5	=5	=5	=5	=5	=5	=5	=5	=5	=5	=5	=5	=5	=5
*	*	*	*	*	*	*	*	*	*	*	*	*	*	*	*	*	*	*^	*	*	*	*	*	*
!	!	!	!	!	!	!	!	!	!	!	!	!	!	!	!	!	!	!LO:TX:b:i:t=  (poco marc.)	!	!	!	!	!	!	!
4%3r	.	4%3r	.	4%3r	.	4%3r	.	4%3r	.	4%3r	.	4%3r	.	4%3r	.	4%3r	.	4ee-]	(4.a~	mf	4ccc]	4%3r	.	4%3r	.
.	.	.	.	.	.	.	.	.	.	.	.	.	.	.	.	.	.	(4.ee-~	.	.	[2ccc~	.	.	.	.
.	.	.	.	.	.	.	.	.	.	.	.	.	.	.	.	.	.	.	8a')	.	.	.	.	.	.
.	.	.	.	.	.	.	.	.	.	.	.	.	.	.	.	.	.	.	[4a~	.	.	.	.	.	.
.	.	.	.	.	.	.	.	.	.	.	.	.	.	.	.	.	.	8ee-')	.	.	.	.	.	.	.
=6	=6	=6	=6	=6	=6	=6	=6	=6	=6	=6	=6	=6	=6	=6	=6	=6	=6	=6	=6	=6	=6	=6	=6	=6	=6
4%3r	.	4%3r	.	4%3r	.	4%3r	.	4%3r	.	4%3r	.	4%3r	.	4%3r	.	4%3r	.	2dd-X	4a]	.	4.ccc]	4%3r	.	4%3r	.
.	.	.	.	.	.	.	.	.	.	.	.	.	.	.	.	.	.	.	(4.a~	.	.	.	.	.	.
.	.	.	.	.	.	.	.	.	.	.	.	.	.	.	.	.	.	.	.	.	[4.ccc~	.	.	.	.
!	!	!	!	!	!	!	!	!	!	!	!	!	!	!	!	!	!	!LO:TX:a:i:t=sim.	!	!	!	!	!	!	!
.	.	.	.	.	.	.	.	.	.	.	.	.	.	.	.	.	.	[4ee-	.	.	.	.	.	.	.
.	.	.	.	.	.	.	.	.	.	.	.	.	.	.	.	.	.	.	8a')	.	.	.	.	.	.
=7	=7	=7	=7	=7	=7	=7	=7	=7	=7	=7	=7	=7	=7	=7	=7	=7	=7	=7	=7	=7	=7	=7	=7	=7	=7
4%3r	.	4%3r	.	4%3r	.	4%3r	.	4%3r	.	4%3r	.	4%3r	.	4%3r	.	4%3r	.	4.ee-]	2a	.	4ccc]	4%3r	.	4%3r	.
.	.	.	.	.	.	.	.	.	.	.	.	.	.	.	.	.	.	.	.	.	[2bb-X~	.	.	.	.
.	.	.	.	.	.	.	.	.	.	.	.	.	.	.	.	.	.	(4.dd-X~	.	.	.	.	.	.	.
.	.	.	.	.	.	.	.	.	.	.	.	.	.	.	.	.	.	.	(4a	.	.	.	.	.	.
=8	=8	=8	=8	=8	=8	=8	=8	=8	=8	=8	=8	=8	=8	=8	=8	=8	=8	=8	=8	=8	=8	=8	=8	=8	=8
!	!	!	!	!LO:TX:b:i:t=  (poco marc.)	!	!	!	!	!	!	!	!	!	!	!	!	!	!	!	!	!	!	!	!	!
4%3r	.	4%3r	.	4r	mp	8r	.	4%3r	.	4%3r	.	4%3r	.	4%3r	.	4%3r	.	8dd-X')	2bX~)	.	8bb-L]	4%3r	.	4%3r	.
!	!	!	!	!	!	!LO:TX:b:i:t=  (poco marc.)	!	!	!	!	!	!	!	!	!	!	!	!	!	!	!LO:TX:a:i:t=sim.	!	!	!	!
.	.	.	.	.	.	[4dd#Xv	mp	.	.	.	.	.	.	.	.	.	.	[4.ee-	.	.	(8bb-XJ	.	.	.	.
.	.	.	.	4r	.	.	.	.	.	.	.	.	.	.	.	.	.	.	.	.	2ccc~)	.	.	.	.
.	.	.	.	.	.	8dd#~]	.	.	.	.	.	.	.	.	.	.	.	.	.	.	.	.	.	.	.
!	!	!	!	!	!	!	!	!	!	!	!	!	!	!	!	!	!	!LO:TX:b:i:t=sim.	!	!	!	!	!	!	!
.	.	.	.	[4au	.	([4dd#	.	.	.	.	.	.	.	.	.	.	.	8ee-L]	[4a	.	.	.	.	.	.
.	.	.	.	.	.	.	.	.	.	.	.	.	.	.	.	.	.	([8dd-~J	.	.	.	.	.	.	.
!!pagebreak:original
=9	=9	=9	=9	=9	=9	=9	=9	=9	=9	=9	=9	=9	=9	=9	=9	=9	=9	=9	=9	=9	=9	=9	=9	=9	=9
4%3r	.	4%3r	.	4a]	.	8dd#L]	.	4%3r	.	4%3r	.	4%3r	.	4%3r	.	4%3r	.	4.dd-]	4a]	.	2bb-X~	4%3r	.	4%3r	.
.	.	.	.	.	.	8dd#X~J)	.	.	.	.	.	.	.	.	.	.	.	.	.	.	.	.	.	.	.
.	.	.	.	4b	.	4.ee#X	.	.	.	.	.	.	.	.	.	.	.	.	(4bX	.	.	.	.	.	.
.	.	.	.	.	.	.	.	.	.	.	.	.	.	.	.	.	.	8dd-X')	.	.	.	.	.	.	.
.	.	.	.	[4a	.	.	.	.	.	.	.	.	.	.	.	.	.	[4ee-	[4a)	.	[4ccc~	.	.	.	.
.	.	.	.	.	.	([8dd#X	.	.	.	.	.	.	.	.	.	.	.	.	.	.	.	.	.	.	.
=10	=10	=10	=10	=10	=10	=10	=10	=10	=10	=10	=10	=10	=10	=10	=10	=10	=10	=10	=10	=10	=10	=10	=10	=10	=10
!	!	!	!	!	!	!	!	!	!	!	!	!	!	!	!	!LO:TX:b:i:t=  (poco marc.)	!	!	!	!	!	!	!	!	!
!	!	!	!	!	!	!	!	!	!	!	!	!	!	!	!	!LO:TX:a:t=Solo	!	!	!	!	!	!	!	!	!
4%3r	.	4%3r	.	4a]	.	4.dd#]	.	4r	.	4%3r	.	4%3r	.	4%3r	.	(4.B~	mf	4ee-]	2a]	.	4.ccc]	4%3r	.	4%3r	.
.	.	.	.	4.B	mf	.	.	8r	.	.	.	.	.	.	.	.	.	[2dd-X	.	.	.	.	.	.	.
.	.	.	.	.	.	8dd#X~)	.	([4.bb-Xu	mp	.	.	.	.	.	.	8B')	.	.	.	.	[4.bb-X~	.	.	.	.
.	.	.	.	.	.	([4dd#	.	.	.	.	.	.	.	.	.	([4B~	.	.	[4a	.	.	.	.	.	.
.	.	.	.	[8B	.	.	.	.	.	.	.	.	.	.	.	.	.	.	.	.	.	.	.	.	.
=11	=11	=11	=11	=11	=11	=11	=11	=11	=11	=11	=11	=11	=11	=11	=11	=11	=11	=11	=11	=11	=11	=11	=11	=11	=11
!	!	!	!	!	!	!	!	!	!	!	!	!	!	!LO:TX:b:i:t=  (poco marc.)	!	!	!	!	!	!	!	!	!	!	!
!	!	!LO:TX:b:i:t=  (poco marc.)	!	!	!	!	!	!	!	!	!	!	!	!LO:TX:a:t=Solo	!	!	!	!	!	!	!	!	!	!	!
4%3r	.	(4.F#X~u	mf	8BL]	.	4.dd#]	<	2bb-_	.	4%3r	.	4%3r	.	(4.F#X~	mf	8BL]	.	4dd-]	4.a]	.	2bb-_	4%3r	.	4%3r	.
.	.	.	.	8BJ	.	.	.	.	.	.	.	.	.	.	.	8B'J)	.	.	.	.	.	.	.	.	.
.	.	.	.	4B	.	.	.	.	.	.	.	.	.	.	.	4B~	.	[2ee-	.	.	.	.	.	.	.
.	.	8F#')	.	.	.	8dd~)	[	.	.	.	.	.	.	8F#')	.	.	.	.	(8a	.	.	.	.	.	.
.	.	([4F#~	.	[4c#X	.	[4ee#X	mf	8bb-L]	<	.	.	.	.	([4F#~	.	[4c#X	.	.	[4bX)	.	8bb-L]	.	.	.	.
.	.	.	.	.	.	.	.	8bb-X~J)	[	.	.	.	.	.	.	.	.	.	.	.	(8bb-XJ	.	.	.	.
=12	=12	=12	=12	=12	=12	=12	=12	=12	=12	=12	=12	=12	=12	=12	=12	=12	=12	=12	=12	=12	=12	=12	=12	=12	=12
4r	.	8F#L]	.	4.c#]	.	2ee#]	.	2ccc	mf	4r	.	4%3r	.	8F#L]	.	4.c#]	.	8ee-L]	4.b]	.	2ccc~)	4%3r	.	4%3r	.
.	.	8F#X'J)	.	.	.	.	.	.	.	.	.	.	.	8F#X'J)	.	.	.	[8dd-XJ	.	.	.	.	.	.	.
!LO:TX:b:i:t=  (poco marc.)	!	!	!	!	!	!	!	!	!	!LO:TX:b:i:t=  (poco marc.)	!	!	!	!	!	!	!	!	!	!	!	!	!	!	!
4r	mf	2G#X~	.	.	.	.	.	.	.	4r	mf	.	.	2G#X~	.	.	.	2dd-]	.	.	.	.	.	.	.
.	.	.	.	[4.B	.	.	.	.	.	.	.	.	.	.	.	([4.B~	.	.	4.a	.	.	.	.	.	.
!	!	!	!	!	!	!	!	!	!	!LO:TX:a:t=senza sord.	!	!	!	!	!	!	!	!	!	!	!	!	!	!	!
([4Gnu	.	.	.	.	.	[4dd#X	.	[4bb-X	.	([4GG	.	.	.	.	.	.	.	.	.	.	[4bb-X~	.	.	.	.
*	*	*	*	*	*	*	*	*	*	*	*	*	*	*	*	*	*	*v	*v	*	*	*	*	*	*
!!pagebreak:original
=13	=13	=13	=13	=13	=13	=13	=13	=13	=13	=13	=13	=13	=13	=13	=13	=13	=13	=13	=13	=13	=13	=13	=13	=13
!	!	!	!	!	!	!	!	!	!	!	!	!LO:TX:a:t=senza sord.	!	!	!	!	!	!	!	!	!	!	!	!
8GL]	.	([2F#X	.	4.B]	.	2dd#]	.	4.bb-]	.	8GGL]	.	4r	.	[2F#X	.	4.B]	.	4%3r	.	2bb-_	4r	.	4r	.
8G~J)	.	.	.	.	.	.	.	.	.	8GG'J)	.	.	.	.	.	.	.	.	.	.	.	.	.	.
*	*	*	*	*	*	*	*	*	*	*	*	*	*	*	*	*	*	*	*	*	*	*	*8va	*
!	!	!	!	!	!	!	!	!	!	!	!	!LO:TX:b:i:t=  (poco marc.)	!	!	!	!	!	!	!	!	!	!	!	!
([2G	.	.	.	.	.	.	.	.	.	([2GG~	.	4r	mf	.	.	.	.	.	.	.	2ff	mf	2fff	mf
.	.	.	.	8B	.	.	.	(4cccv	.	.	.	.	.	.	.	8B')	.	.	.	.	.	.	.	.
.	.	8F#L]	.	[4B	.	[4ee#X	.	.	.	.	.	[4a	.	8F#L]	.	[4B~	.	.	.	8bb-L]	.	.	.	.
.	.	8F#~J)	.	.	.	.	.	8bb-X~)	.	.	.	.	.	(8F#J	.	.	.	.	.	(8bb-XJ	.	.	.	.
=14	=14	=14	=14	=14	=14	=14	=14	=14	=14	=14	=14	=14	=14	=14	=14	=14	=14	=14	=14	=14	=14	=14	=14	=14
*	*	*	*	*	*	*	*	*	*	*	*	*	*	*	*	*	*	*^	*	*	*	*	*	*
!LO:TX:b:i:t=poco cresc.	!	!LO:TX:b:i:t=poco cresc.	!	!LO:TX:b:i:t=poco cresc.	!	!LO:TX:b:i:t=poco cresc.	!	!LO:TX:b:i:t=poco cresc.	!	!LO:TX:b:i:t=poco cresc.	!	!LO:TX:b:i:t=poco cresc.	!	!LO:TX:b:i:t=poco cresc.	!	!LO:TX:b:i:t=poco cresc.	!	!LO:TX:b:i:t=poco cresc.	!	!	!LO:TX:b:i:t=poco cresc.	!LO:TX:b:i:t=poco cresc.	!	!LO:TX:b:i:t=poco cresc.	!
8GL]	.	([2.G#Xu	.	8BL]	.	4ee#]	.	[2.ccc	.	8GGL]	.	4.a]	.	[2.G#X)	.	8BL]	.	2dd-X	4.a	.	[2.ccc~)	4.ee-X	.	4.eee-X	.
!	!	!	!	!	!	!	!	!	!	!	!	!	!	!	!	!LO:TX:a:i:t=sim.	!	!	!	!	!	!	!	!	!
8G~J)	.	.	.	8BJ	.	.	.	.	.	8GG'J)	.	.	.	.	.	(8BJ	.	.	.	.	.	.	.	.	.
(4.G	.	.	.	4c#X	.	4.dd#X	.	.	.	(4.GG~	.	.	.	.	.	4c#X~)	.	.	.	.	.	.	.	.	.
.	.	.	.	.	.	.	.	.	.	.	.	4b	.	.	.	.	.	.	4bX	.	.	[4.ff	.	[4.fff	.
.	.	.	.	[4B	.	.	.	.	.	.	.	.	.	.	.	[4B~	.	[4ee-	.	.	.	.	.	.	.
8G~)	.	.	.	.	.	[8ee#X	.	.	.	8GG')	.	[8a	.	.	.	.	.	.	[8a	.	.	.	.	.	.
=15	=15	=15	=15	=15	=15	=15	=15	=15	=15	=15	=15	=15	=15	=15	=15	=15	=15	=15	=15	=15	=15	=15	=15	=15	=15
!	!	!	!	!	!	!	!	!	!	!	!	!	!	!	!	!	!	!	!	!	!	!	!	!LO:TX:a:t=rit.	!
(4.G	.	8G#L]	.	4.B]	.	4.ee#]	.	8ccc]	.	(4.GG~	.	4.a]	.	8G#L]	.	4.B]	.	4ee-]	4.a]	.	8ccc]	4.ff]	.	4.fff]	.
.	.	8F#X~J)	.	.	.	.	.	(4bb-X	.	.	.	.	.	(8F#XJ	.	.	.	.	.	.	4bb-X~	.	.	.	.
.	.	2G#X	.	.	.	.	.	.	.	.	.	.	.	2G#X)	.	.	.	[2dd-X	.	.	.	.	.	.	.
8G~)	.	.	.	4c#X	.	[4.dd#X	.	8bb-~)	.	8GG')	.	4b	.	.	.	4c#X~	.	.	4bX	.	(8bb-	[4.ee-X	.	[4.eee-X	.
[4G	.	.	.	.	.	.	.	[4ccc	.	[4GG~	.	.	.	.	.	.	.	.	.	.	[4ccc~	.	.	.	.
.	.	.	.	[8B	.	.	.	.	.	.	.	[8a	.	.	.	[8B~	.	.	[8a	.	.	.	.	.	.
=16	=16	=16	=16	=16	=16	=16	=16	=16	=16	=16	=16	=16	=16	=16	=16	=16	=16	=16	=16	=16	=16	=16	=16	=16	=16
4G]	.	4.F#X	.	4B]	.	8dd#]	.	4ccc]	.	4GG]	.	4a]	.	4.F#X	.	4B]	.	4dd-]	4a]	.	4ccc])	4ee-]	.	4eee-]	.
.	.	.	.	.	.	4ee#X	.	.	.	.	.	.	.	.	.	.	.	.	.	.	.	.	.	.	.
4Gv	.	.	.	4c#X	.	.	.	2bb-X	.	4GG~	.	4b	.	.	.	4c#X~	.	4ee-	4bX	.	2bb-X~	4ff	.	4fff	.
.	.	4.G#X	.	.	.	[4dd#X	.	.	.	.	.	.	.	4.G#X	.	.	.	.	.	.	.	.	.	.	.
*	*	*	*	*	*	*	*	*	*	*	*	*	*	*	*	*	*	*v	*v	*	*	*	*	*	*
*	*	*	*	*	*	*	*	*	*	*	*	*	*	*	*	*	*	*	*	*	*	*	*X8va	*
*	*	*	*	*	*	*	*	*	*	*	*	*	*	*	*	*	*	*^	*	*	*	*	*	*
4Gv	.	.	.	4B	.	.	.	.	.	4GG~	.	4a	.	.	.	4B~	.	4dd-X	4a	.	.	4ee-X	.	4eee-X	.
.	.	.	.	.	.	8dd#]	.	.	.	.	.	.	.	.	.	.	.	.	.	.	.	.	.	.	.
*	*	*	*	*	*	*	*	*	*	*	*	*	*	*	*	*	*	*v	*v	*	*	*	*	*	*
=	=	=	=	=	=	=	=	=	=	=	=	=	=	=	=	=	=	=	=	=	=	=	=	=
*-	*-	*-	*-	*-	*-	*-	*-	*-	*-	*-	*-	*-	*-	*-	*-	*-	*-	*-	*-	*-	*-	*-	*-	*-
!!!system-decoration: [([(s1,s2)]s3,s4,s5)][(s6,s7,s8)][(s9,s10,s11,s12,s13)]
